mixed-reality.svg

<svg fill="currentColor" viewBox="0 0 24 24"><path d="M5 3h14a2 2 0 0 1 2 2v14a2 2 0 0 1-2 2H5a2 2 0 0 1-2-2V5a2 2 0 0 1 2-2m3.25 12h1.5l1-3.43V15h1.5V9H10l-1 3.43L8 9H5.75v6h1.5v-3.43zm5.25-6v6H15v-2h1.15l.85 2h1.5l-.9-2.1c.5-.25.9-.8.9-1.4v-1c0-.85-.65-1.5-1.5-1.5zm1.5 1.5h2v1h-2z"/></svg>

<svg  viewBox="0 0 24 24" fill="currentColor"><path  d="M5,3H19A2,2 0 0,1 21,5V19A2,2 0 0,1 19,21H5C3.89,21 3,20.1 3,19V5A2,2 0 0,1 5,3M8.25,15H9.75L10.75,11.57V15H12.25V9H10L9,12.43L8,9H5.75V15H7.25V11.57L8.25,15M13.5,9V15H15V13H16.15L17,15H18.5L17.6,12.9C18.1,12.65 18.5,12.1 18.5,11.5V10.5C18.5,9.65 17.85,9 17,9H13.5M15,10.5H17V11.5H15V10.5Z"/></svg>
